icon/pk/fruiter.svg

<svg viewBox="0 0 48 48" fill="none" xmlns="http://www.w3.org/2000/svg" height="1em" width="1em">
  <path d="M19 32.0003C15 32 6 32.1309 6 22.941C6 21.192 6.59395 17.6967 9.8653 15.6125C10.5277 15.1905 10.9894 14.4933 11.1004 13.7159C11.5991 10.2257 14.1089 4 22 4C24.2925 4 27.9884 4.29995 30.3835 7.93C30.8001 8.56136 31.4798 8.98871 32.2221 9.13376C35.7901 9.83088 42.0582 13.2757 42 20C42.0591 22.1704 41.5574 25.3457 37.494 27.3697C36.6482 27.791 36.1153 28.6832 35.9478 29.6132C35.497 32.117 33.2767 35.3748 27 36" stroke="black" stroke-width="4" stroke-linecap="round" stroke-linejoin="round"/>
  <path d="M16 44C23.0933 31.0694 18.9556 25.3469 16 24L30 22C23.28 31.3388 26.5778 40.5578 29.0667 44H16Z" fill="#2F88FF" stroke="black" stroke-width="4" stroke-linecap="round" stroke-linejoin="round"/>
</svg>

<svg width="48" height="48" fill="none" xmlns="http://www.w3.org/2000/svg"><path d="M19 32c-4 0-13 .13-13-9.059 0-1.749.594-5.244 3.865-7.328a2.726 2.726 0 0 0 1.235-1.897C11.6 10.226 14.11 4 22 4c2.293 0 5.988.3 8.384 3.93.416.631 1.096 1.059 1.838 1.204C35.79 9.83 42.058 13.276 42 20c.06 2.17-.443 5.346-4.506 7.37-.846.421-1.379 1.313-1.546 2.243C35.497 32.117 33.277 35.375 27 36" stroke="#000" stroke-width="4" stroke-linecap="round" stroke-linejoin="round"/><path d="M16 44c7.093-12.93 2.956-18.653 0-20l14-2c-6.72 9.339-3.422 18.558-.933 22H16Z" fill="#2F88FF" stroke="#000" stroke-width="4" stroke-linecap="round" stroke-linejoin="round"/></svg>
